public/images/blog-telegram.svg

<svg width="34" height="34" viewBox="0 0 34 34" fill="none" xmlns="http://www.w3.org/2000/svg">
<g id="Telegram">
<rect id="Rectangle 2064" width="34" height="34" rx="4" fill="#009CD9"/>
<path id="Telegram_2" fill-rule="evenodd" clip-rule="evenodd" d="M7.3743 15.7492C12.7431 13.2087 16.3232 11.5342 18.1144 10.725C23.229 8.41494 24.2916 8.01333 24.9841 8.00013C25.1366 7.99733 25.4769 8.03813 25.6979 8.23254C25.8843 8.39654 25.9355 8.61855 25.9602 8.77416C25.9848 8.92976 26.0154 9.28457 25.9911 9.56138C25.7141 12.7239 24.5148 20.3985 23.9045 23.9406C23.6463 25.4395 23.138 25.9419 22.6459 25.9911C21.5763 26.0979 20.7645 25.2235 19.7284 24.4862C18.1074 23.3322 17.1917 22.6142 15.6186 21.4882C13.8002 20.1869 14.9792 19.4717 16.0153 18.3029C16.2864 17.9968 20.9988 13.3423 21.0898 12.9199C21.1012 12.8671 21.1119 12.6703 21.0039 12.5663C20.896 12.4623 20.7373 12.4979 20.6227 12.5263C20.4603 12.5663 17.8709 14.4251 12.8547 18.1024C12.1198 18.6505 11.4539 18.9177 10.8576 18.9037C10.2001 18.8881 8.93528 18.5001 7.99494 18.168C6.8417 17.7608 5.92493 17.5456 6.00486 16.854C6.04648 16.494 6.50321 16.1256 7.37504 15.7492H7.3743Z" fill="white"/>
</g>
</svg>

<svg width="34" height="34" fill="none" xmlns="http://www.w3.org/2000/svg"><rect width="34" height="34" rx="4" fill="#009CD9"/><path fill-rule="evenodd" clip-rule="evenodd" d="M7.374 15.75c5.37-2.541 8.95-4.216 10.74-5.025 5.115-2.31 6.178-2.712 6.87-2.725.153-.003.493.038.714.233.186.164.238.386.262.541.025.156.055.51.031.787-.277 3.163-1.476 10.837-2.087 14.38-.258 1.498-.766 2-1.258 2.05-1.07.107-1.881-.767-2.918-1.505-1.62-1.154-2.536-1.872-4.11-2.998-1.818-1.301-.639-2.016.397-3.185.271-.306 4.984-4.96 5.075-5.383.011-.053.022-.25-.086-.354-.108-.104-.267-.068-.381-.04-.163.04-2.752 1.9-7.768 5.576-.735.549-1.401.816-1.997.802-.658-.016-1.923-.404-2.863-.736-1.153-.407-2.07-.622-1.99-1.314.041-.36.498-.728 1.37-1.105z" fill="#fff"/></svg>
